Origami/64x64/apps/foursquare.svg

<svg width="64" height="64" version="1" xmlns="http://www.w3.org/2000/svg">
 <rect transform="matrix(0,-1,-1,0,0,0)" x="-61" y="-60" width="56" height="56" rx="2.8" ry="2.8" style="opacity:.2"/>
 <rect transform="matrix(0,-1,-1,0,0,0)" x="-60" y="-60" width="56" height="56" rx="2.8" ry="2.8" style="fill:#fa4778"/>
 <path d="M 6.8008 4 C 5.2496 4 4 5.2496 4 6.8008 L 4 7.8008 C 4 6.2496 5.2496 5 6.8008 5 L 57.199 5 C 58.75 5 60 6.2496 60 7.8008 L 60 6.8008 C 60 5.2496 58.75 4 57.199 4 L 6.8008 4 z" style="fill:#ffffff;opacity:.2"/>
 <path d="m20 17v32l10-12h8l2-10h-10 10l2-10z" style="fill:none;opacity:.2;stroke-linejoin:round;stroke-width:4.00004;stroke:#000000"/>
 <path d="m20 16v32l10-12h8l2-10h-10 10l2-10z" style="fill:none;stroke-linejoin:round;stroke-width:4.00004;stroke:#ffffff"/>
</svg>

<svg xmlns="http://www.w3.org/2000/svg" width="64" height="64" version="1">
 <rect style="opacity:0.2" width="56" height="56" x="-61" y="-60" rx="2.8" ry="2.8" transform="matrix(0,-1,-1,0,0,0)"/>
 <rect style="fill:#fa4778" width="56" height="56" x="-60" y="-60" rx="2.8" ry="2.8" transform="matrix(0,-1,-1,0,0,0)"/>
 <path style="fill:#ffffff;opacity:0.2" d="M 6.8008 4 C 5.2496 4 4 5.2496 4 6.8008 L 4 7.8008 C 4 6.2496 5.2496 5 6.8008 5 L 57.199 5 C 58.75 5 60 6.2496 60 7.8008 L 60 6.8008 C 60 5.2496 58.75 4 57.199 4 L 6.8008 4 z"/>
 <path style="fill:none;stroke:#000000;stroke-width:4.00004;stroke-linejoin:round;opacity:0.2" d="M 20,17 V 49 L 30,37 H 38 L 40,27 H 30 40 L 42,17 Z"/>
 <path style="fill:none;stroke:#ffffff;stroke-width:4.00004;stroke-linejoin:round" d="M 20,16 V 48 L 30,36 H 38 L 40,26 H 30 40 L 42,16 Z"/>
</svg>
